!!!OTL: DER LENZ THUT SEINEN FREUDENGRUSS
!!!ARE: Europa, Mitteleuropa, Deutschland
!!!SCT: F0991
!!!YEM: Copyright 1995, estate of Helmut Schaffrath.
**kern
*ICvox
*Ivox
*M2/4
*k[]
*C:
{8C
=1
8E
8G
8c
8G
=2
8.e
16d
8c}
{8G
=3
4A
4B
=4
4.c}
{8e
=5
8d
8B
8B
8G
=6
4c
8B}
{8e
=7
8d
8B
8c
8B
=8
4A
8G
8r
=9
8r}
{8G
8.G
16G
=10
8.G
16G
8G
8G
=11
8c}
{8G
8E
8C
=12
2G
=13
8r}
{8G
8.G
16G
=14
8.G
16G
8G
8G
=15
8c}
{8G
8E
8C
=16
4.G}
{8e
=17
8e
8c
8c
8G
=18
4A
8G}
{8c
=19
8G
8E
8F
8E
=20
4D
8C}
{8C
=21
8E
8G
8c
8G
=22
8.e
16d
8c}
{8G
=23
4A
4B
=24
4.c}
{8e
=25
8d
8c
8B
8A
=26
8.G
16F
8E}
{8G
=27
8A
8B
8c
8d
=28
4e
4d
=29
4.c}
==
!!!AGN: Natur -, Jahreszeiten - Lied, Fruehling
!!!ONB: ESAC (Essen Associative Code) Database: FINK
!!!AMT: simple duple
!!!AIN: vox
!!!EED: Helmut Schaffrath
!!!EEV: 1.0
*-
